!! 00053] TT[KA
!! Kassette von Frau Li Wenzhen, Peking - Zum Gesangsheft
!!!OTL: Jia li you ge qian wan luo
!!!ARE: Asia, China, Fujian, Zhangzhou
!! Ethnic Group: Han, ?)
!! MM, Seite 17, 1
!!!SCT: C0790
!!!YEM: Copyright 1995, estate of Helmut Schaffrath.
**kern
*ICvox
*Ivox
*M2/4
*k[]
*C:
{8.dd
16ee
8dd
8cc
=1
8.dd
16ee
[4dd
=2
4.dd]
8ee
=3
8.cc
16dd
4ee
=4
8dd
8cc
4a}
=5
{8dd
4dd
8a
=6
8.g
16a
8g
8e
=7
2d}
=8
{4.dd
8cc#
=9
8a
8cc#
4a
=10
2g}
==
!!!AGN: Shange
!! Die Stuecke sind meist uebersteuert, also verzerrt.
!!    Vereinzelt Verzierungen.
!!!ONB: ESAC (Essen Associative Code) Database: CHINA
!!!AMT: simple duple
!!!AIN: vox
!!!EED: Helmut Schaffrath
!!!EEV: 1.0
*-
!!!ONB: Tied note syntax fixed by Craig Sapp, 2004/05/03/
